svg/u1f505.svg

<svg viewBox="0 0 128 128" xmlns="http://www.w3.org/2000/svg">
  <path d="M78.42,43.31l-30.7,0.08l-5,19.62l5,2.54c0,0-0.24-4.42,1.98-8.66c2.22-4.24,6.63-8.37,14.36-8.25 c15.08,0.23,15.68,17.13,15.68,17.13s9.99-6.6,8.53-8.45C86.8,55.47,78.42,43.31,78.42,43.31z" fill="#F17900"/>
  <path d="M35.25,61.01c0,0-1.32,9.52,3.92,18.39c3.85,6.51,11.08,13.3,24.08,13.54 c12.16,0.23,20.89-6.15,24.93-13.47c4.71-8.54,3.85-17.93,3.85-17.93S81.42,74.4,80.65,75.32c-0.77,0.92-16.16,8.77-16.16,8.77 s-12.77-0.38-13.7-2.69C49.87,79.09,35.25,61.01,35.25,61.01z" fill="#F17900"/>
  <path d="M64.05,35.46C42.51,35.35,34.87,52.8,35.09,63.32c0.25,11.88,8.04,26.74,28.35,26.74 c20.18,0,28.47-15.97,28.72-27.98C92.3,54.9,86.95,35.59,64.05,35.46z M79.65,65.17c-0.5,9.66-8.42,14.98-16.34,14.98 c-7.8,0-15.47-6.19-15.6-16.34c-0.14-11.27,6.81-17.74,16.34-17.45C76.31,46.73,80.11,56.27,79.65,65.17z" fill="#FFA624"/>
  <path d="M58.03,20.71c0,0-1.22,7.96,6.17,8.16c7.23,0.2,6.44-7.11,6.44-7.11l-3.75-7.66L58.03,20.71z" fill="#F17900"/>
  <path d="M101.68,28.34c0,0,3.44,4.45-1.21,8.96c-1.08,1.05-1.8,1.71-3.2,2.87c-2.05,1.69-6.07,2.24-8.56-0.27 c-3.72-3.75-1.11-7.68-1.11-7.68L101.68,28.34z" fill="#F17900"/>
  <path d="M99.5,63.19c-0.14,2.26,0.26,7,4.89,7.31c4.53,0.31,6.38,0.22,8.35,0c1.97-0.23,4.04-2.04,4.27-4.99 c0.21-2.79-0.61-4.24-0.91-4.31C115.79,61.12,99.5,63.19,99.5,63.19z" fill="#F17900"/>
  <path d="M89.16,89.48c0,0-2.78,2.07-2.96,5.48c-0.17,3.35,4.84,8.1,7.74,9.2c4.43,1.68,7.56-1.58,7.8-3.91 c0.32-3.08-1.26-5.38-1.26-5.38L89.16,89.48z" fill="#F17900"/>
  <path d="M57.35,110.69c-0.04,0.91-0.64,7.36,5.8,7.45c7.32,0.1,6.25-6.67,6.29-7.7 c0.04-1.03-6.78-2.61-6.78-2.61S57.39,109.78,57.35,110.69z" fill="#F17900"/>
  <path d="M23.39,98.72c0,0-0.25,2.58,2.02,4.62c1.59,1.43,4.31,2.08,7.2,0.68c1.06-0.52,2.67-2.08,4.2-3.88 c1.87-2.2,4.41-4.68,2.83-8.16c-1.37-3.02-2.86-2.99-2.86-2.99L23.39,98.72z" fill="#F17900"/>
  <path d="M10.69,62.5c0,0-1.26,6.27,3.46,7.95c2.59,0.92,6.55,0.5,9.12,0.5c4.17,0,5.62-4.05,5.28-8.1 c-0.28-3.27-7.29-1.8-7.29-1.8L10.69,62.5z" fill="#F17900"/>
  <path d="M28,26.03c0,0-5.01,3.45-2.68,8.61c1.45,3.22,4.11,4.95,6.36,6.2c3.11,1.73,6.48,0.33,7.96-1.39 c2.34-2.72,0.9-6.7,0.9-6.7L28,26.03z" fill="#F17900"/>
  <radialGradient id="SVGID_1_" cx="66.6629" cy="9.6325" gradientUnits="userSpaceOnUse" r="17.4565">
    <stop offset="0.426" stop-color="#FFA624"/>
    <stop offset="0.8158" stop-color="#FF8C0C"/>
  </radialGradient>
  <path d="M64.37,11.52c-3.31,0-6.17,1.91-6.28,5.37c-0.04,1.29-0.13,3.17-0.11,4.4 c0.05,2.6,2,4.69,6.07,4.79c5.05,0.12,6.6-2.84,6.63-3.85s0.06-3.33,0.06-5.22S69.44,11.52,64.37,11.52z" fill="url(#SVGID_1_)"/>
  <radialGradient id="SVGID_2_" cx="99.7284" cy="24.9482" gradientUnits="userSpaceOnUse" r="15.7917">
    <stop offset="0.426" stop-color="#FFA624"/>
    <stop offset="0.8158" stop-color="#FF8C0C"/>
  </radialGradient>
  <path d="M92.24,27.71c-1.41,1.24-3.24,2.76-4.48,4.33c-1.22,1.55-1.28,4.01,1.09,5.9 c1.7,1.36,5.13,1.6,7.72-0.14c1.17-0.79,2.21-1.53,4.09-3.83c1.5-1.83,2.77-4.37-0.06-6.88C97.78,24.58,94.65,25.59,92.24,27.71z" fill="url(#SVGID_2_)"/>
  <radialGradient id="SVGID_3_" cx="115.0438" cy="63.3606" gradientUnits="userSpaceOnUse" r="19.9182">
    <stop offset="0.3162" stop-color="#FFA624"/>
    <stop offset="0.8158" stop-color="#FF8C0C"/>
  </radialGradient>
  <path d="M104.51,58.22c-2.52,0.12-5.02,2.2-5.02,5.02s1.61,4.49,5.79,4.7c4.18,0.21,4.39,0.1,6.9,0 c2.61-0.1,4.52-2.41,4.43-5.24c-0.1-3.35-3.38-4.38-6.1-4.49C107.79,58.11,106.33,58.13,104.51,58.22z" fill="url(#SVGID_3_)"/>
  <radialGradient id="SVGID_4_" cx="98.288" cy="100.5525" gradientUnits="userSpaceOnUse" r="12.6844">
    <stop offset="0.426" stop-color="#FFA624"/>
    <stop offset="0.8158" stop-color="#FF8C0C"/>
  </radialGradient>
  <path d="M89.06,89.53c-1.7,1.53-2.96,4.12,0.71,8.61c0.99,1.21,2.2,2.31,3.61,3.32 c2.07,1.5,4.56,1.45,6.52-0.59c1.31-1.36,1.94-4.12,0.63-5.95c-1.92-2.67-3.02-3.66-4.99-5.33C93.51,87.87,90.67,88.07,89.06,89.53z " fill="url(#SVGID_4_)"/>
  <radialGradient id="SVGID_5_" cx="63.4241" cy="113.6173" gradientUnits="userSpaceOnUse" r="16.8928">
    <stop offset="0.426" stop-color="#FFA624"/>
    <stop offset="0.8158" stop-color="#FF8C0C"/>
  </radialGradient>
  <path d="M63.49,100c-3.35,0-6.05,2.55-6.13,6.53c-0.04,2.07-0.01,2.89-0.03,4.44 c-0.02,2.43,2.98,4.35,5.95,4.29c4.64-0.09,6.15-3.1,6.21-4.44c0.07-1.51,0.11-2.97,0.07-4.71C69.5,102.91,67.35,100,63.49,100z" fill="url(#SVGID_5_)"/>
  <radialGradient id="SVGID_6_" cx="24.8501" cy="101.0511" gradientUnits="userSpaceOnUse" r="15.3198">
    <stop offset="0.426" stop-color="#FFA624"/>
    <stop offset="0.8158" stop-color="#FF8C0C"/>
  </radialGradient>
  <path d="M37.65,89.34c-2.07-1.51-5.23-1.93-8.88,1.46c-1.61,1.5-2.88,2.75-3.96,4.25 s-2.25,4.36-0.6,6.2c1.72,1.94,5.62,2.19,8.25-0.09c2.63-2.28,4.05-4,5.69-6.46C39.54,92.64,39.46,90.66,37.65,89.34z" fill="url(#SVGID_6_)"/>
  <radialGradient id="SVGID_7_" cx="10.2712" cy="63.3029" gradientUnits="userSpaceOnUse" r="17.7857">
    <stop offset="0.426" stop-color="#FFA624"/>
    <stop offset="0.8158" stop-color="#FF8C0C"/>
  </radialGradient>
  <path d="M15.98,58.07c-2.82,0.08-5.37,1.73-5.41,5.13c-0.04,3.4,2.67,4.77,5.42,4.92 s4.52,0.17,7.13,0.05c3.78-0.17,5.5-2.32,5.44-5.15c-0.07-3.02-2.26-4.64-5.36-4.87C20.55,57.96,18.59,58,15.98,58.07z" fill="url(#SVGID_7_)"/>
  <radialGradient id="SVGID_8_" cx="29.0341" cy="27.3442" gradientUnits="userSpaceOnUse" r="14.1042">
    <stop offset="0.426" stop-color="#FFA624"/>
    <stop offset="0.8158" stop-color="#FF8C0C"/>
  </radialGradient>
  <path d="M27.71,26.25c-1.81,1.61-2.45,4.31,0.06,7.65c0.76,1.01,2.72,3.02,4.2,3.88 c2.46,1.41,5.51,1.7,7.51-0.69c1.79-2.14,1.99-4.18-0.96-7.4c-1.19-1.29-2.08-2.13-3.64-3.29C32.76,24.83,29.66,24.51,27.71,26.25z" fill="url(#SVGID_8_)"/>
</svg>

<svg viewBox="0 0 128 128" xmlns="http://www.w3.org/2000/svg">
  <defs>
    <radialGradient id="SVGID_1_" cx="66.6629" cy="9.6325" gradientUnits="userSpaceOnUse" r="17.4565">
      <stop offset="0.426" stop-color="#FFA624"/>
      <stop offset="0.8158" stop-color="#FF8C0C"/>
    </radialGradient>
    <radialGradient id="SVGID_2_" cx="99.7284" cy="24.9482" gradientUnits="userSpaceOnUse" r="15.7917">
      <stop offset="0.426" stop-color="#FFA624"/>
      <stop offset="0.8158" stop-color="#FF8C0C"/>
    </radialGradient>
    <radialGradient id="SVGID_3_" cx="115.0438" cy="63.3606" gradientUnits="userSpaceOnUse" r="19.9182">
      <stop offset="0.3162" stop-color="#FFA624"/>
      <stop offset="0.8158" stop-color="#FF8C0C"/>
    </radialGradient>
    <radialGradient id="SVGID_4_" cx="98.288" cy="100.5525" gradientUnits="userSpaceOnUse" r="12.6844">
      <stop offset="0.426" stop-color="#FFA624"/>
      <stop offset="0.8158" stop-color="#FF8C0C"/>
    </radialGradient>
    <radialGradient id="SVGID_5_" cx="63.4241" cy="113.6173" gradientUnits="userSpaceOnUse" r="16.8928">
      <stop offset="0.426" stop-color="#FFA624"/>
      <stop offset="0.8158" stop-color="#FF8C0C"/>
    </radialGradient>
    <radialGradient id="SVGID_6_" cx="24.8501" cy="101.0511" gradientUnits="userSpaceOnUse" r="15.3198">
      <stop offset="0.426" stop-color="#FFA624"/>
      <stop offset="0.8158" stop-color="#FF8C0C"/>
    </radialGradient>
    <radialGradient id="SVGID_7_" cx="10.2712" cy="63.3029" gradientUnits="userSpaceOnUse" r="17.7857">
      <stop offset="0.426" stop-color="#FFA624"/>
      <stop offset="0.8158" stop-color="#FF8C0C"/>
    </radialGradient>
    <radialGradient id="SVGID_8_" cx="29.0341" cy="27.3442" gradientUnits="userSpaceOnUse" r="14.1042">
      <stop offset="0.426" stop-color="#FFA624"/>
      <stop offset="0.8158" stop-color="#FF8C0C"/>
    </radialGradient>
  </defs>
  <path d="M78.42,43.31 L47.72,43.39 L42.72,63.01 L47.72,65.55 C47.72,65.55 47.48,61.13 49.7,56.89 C51.92,52.65 56.33,48.52 64.06,48.64 C79.14,48.87 79.74,65.77 79.74,65.77 C79.74,65.77 89.73,59.17 88.27,57.32 C86.8,55.47 78.42,43.31 78.42,43.31 Z" fill="#F17900"/>
  <path d="M35.25,61.01 C35.25,61.01 33.93,70.53 39.17,79.4 C43.02,85.91 50.25,92.7 63.25,92.94 C75.41,93.17 84.14,86.79 88.18,79.47 C92.89,70.93 92.03,61.54 92.03,61.54 C92.03,61.54 81.42,74.4 80.65,75.32 C79.88,76.24 64.49,84.09 64.49,84.09 C64.49,84.09 51.72,83.71 50.79,81.4 C49.87,79.09 35.25,61.01 35.25,61.01 Z" fill="#F17900"/>
  <path d="M64.05,35.46 C42.51,35.35 34.87,52.8 35.09,63.32 C35.34,75.2 43.13,90.06 63.44,90.06 C83.62,90.06 91.91,74.09 92.16,62.08 C92.3,54.9 86.95,35.59 64.05,35.46 Z M79.65,65.17 C79.15,74.83 71.23,80.15 63.31,80.15 C55.51,80.15 47.84,73.96 47.71,63.81 C47.57,52.54 54.52,46.07 64.05,46.36 C76.31,46.73 80.11,56.27 79.65,65.17 Z" fill="#FFA624"/>
  <path d="M58.03,20.71 C58.03,20.71 56.81,28.67 64.2,28.87 C71.43,29.07 70.64,21.76 70.64,21.76 L66.89,14.1 L58.03,20.71 Z" fill="#F17900"/>
  <path d="M101.68,28.34 C101.68,28.34 105.12,32.79 100.47,37.3 C99.39,38.35 98.67,39.01 97.27,40.17 C95.22,41.86 91.2,42.41 88.71,39.9 C84.99,36.15 87.6,32.22 87.6,32.22 L101.68,28.34 Z" fill="#F17900"/>
  <path d="M99.5,63.19 C99.36,65.45 99.76,70.19 104.39,70.5 C108.92,70.81 110.77,70.72 112.74,70.5 C114.71,70.27 116.78,68.46 117.01,65.51 C117.22,62.72 116.4,61.27 116.1,61.2 C115.79,61.12 99.5,63.19 99.5,63.19 Z" fill="#F17900"/>
  <path d="M89.16,89.48 C89.16,89.48 86.38,91.55 86.2,94.96 C86.03,98.31 91.04,103.06 93.94,104.16 C98.37,105.84 101.5,102.58 101.74,100.25 C102.06,97.17 100.48,94.87 100.48,94.87 L89.16,89.48 Z" fill="#F17900"/>
  <path d="M57.35,110.69 C57.31,111.6 56.71,118.05 63.15,118.14 C70.47,118.24 69.4,111.47 69.44,110.44 C69.48,109.41 62.66,107.83 62.66,107.83 C62.66,107.83 57.39,109.78 57.35,110.69 Z" fill="#F17900"/>
  <path d="M23.39,98.72 C23.39,98.72 23.14,101.3 25.41,103.34 C27,104.77 29.72,105.42 32.61,104.02 C33.67,103.5 35.28,101.94 36.81,100.14 C38.68,97.94 41.22,95.46 39.64,91.98 C38.27,88.96 36.78,88.99 36.78,88.99 L23.39,98.72 Z" fill="#F17900"/>
  <path d="M10.69,62.5 C10.69,62.5 9.43,68.77 14.15,70.45 C16.74,71.37 20.7,70.95 23.27,70.95 C27.44,70.95 28.89,66.9 28.55,62.85 C28.27,59.58 21.26,61.05 21.26,61.05 L10.69,62.5 Z" fill="#F17900"/>
  <path d="M28,26.03 C28,26.03 22.99,29.48 25.32,34.64 C26.77,37.86 29.43,39.59 31.68,40.84 C34.79,42.57 38.16,41.17 39.64,39.45 C41.98,36.73 40.54,32.75 40.54,32.75 L28,26.03 Z" fill="#F17900"/>
  <path d="M64.37,11.52 C61.06,11.52 58.2,13.43 58.09,16.89 C58.05,18.18 57.96,20.06 57.98,21.29 C58.03,23.89 59.98,25.98 64.05,26.08 C69.1,26.2 70.65,23.24 70.68,22.23 C70.71,21.22 70.74,18.9 70.74,17.01 C70.74,15.12 69.44,11.52 64.37,11.52 Z" fill="url(#SVGID_1_)"/>
  <path d="M92.24,27.71 C90.83,28.95 89,30.47 87.76,32.04 C86.54,33.59 86.48,36.05 88.85,37.94 C90.55,39.3 93.98,39.54 96.57,37.8 C97.74,37.01 98.78,36.27 100.66,33.97 C102.16,32.14 103.43,29.6 100.6,27.09 C97.78,24.58 94.65,25.59 92.24,27.71 Z" fill="url(#SVGID_2_)"/>
  <path d="M104.51,58.22 C101.99,58.34 99.49,60.42 99.49,63.24 C99.49,66.06 101.1,67.73 105.28,67.94 C109.46,68.15 109.67,68.04 112.18,67.94 C114.79,67.84 116.7,65.53 116.61,62.7 C116.51,59.35 113.23,58.32 110.51,58.21 C107.79,58.11 106.33,58.13 104.51,58.22 Z" fill="url(#SVGID_3_)"/>
  <path d="M89.06,89.53 C87.36,91.06 86.1,93.65 89.77,98.14 C90.76,99.35 91.97,100.45 93.38,101.46 C95.45,102.96 97.94,102.91 99.9,100.87 C101.21,99.51 101.84,96.75 100.53,94.92 C98.61,92.25 97.51,91.26 95.54,89.59 C93.51,87.87 90.67,88.07 89.06,89.53 Z" fill="url(#SVGID_4_)"/>
  <path d="M63.49,100 C60.14,100 57.44,102.55 57.36,106.53 C57.32,108.6 57.35,109.42 57.33,110.97 C57.31,113.4 60.31,115.32 63.28,115.26 C67.92,115.17 69.43,112.16 69.49,110.82 C69.56,109.31 69.6,107.85 69.56,106.11 C69.5,102.91 67.35,100 63.49,100 Z" fill="url(#SVGID_5_)"/>
  <path d="M37.65,89.34 C35.58,87.83 32.42,87.41 28.77,90.8 C27.16,92.3 25.89,93.55 24.81,95.05 C23.73,96.55 22.56,99.41 24.21,101.25 C25.93,103.19 29.83,103.44 32.46,101.16 C35.09,98.88 36.51,97.16 38.15,94.7 C39.54,92.64 39.46,90.66 37.65,89.34 Z" fill="url(#SVGID_6_)"/>
  <path d="M15.98,58.07 C13.16,58.15 10.61,59.8 10.57,63.2 C10.53,66.6 13.24,67.97 15.99,68.12 C18.74,68.27 20.51,68.29 23.12,68.17 C26.9,68 28.62,65.85 28.56,63.02 C28.49,60 26.3,58.38 23.2,58.15 C20.55,57.96 18.59,58 15.98,58.07 Z" fill="url(#SVGID_7_)"/>
  <path d="M27.71,26.25 C25.9,27.86 25.26,30.56 27.77,33.9 C28.53,34.91 30.49,36.92 31.97,37.78 C34.43,39.19 37.48,39.48 39.48,37.09 C41.27,34.95 41.47,32.91 38.52,29.69 C37.33,28.4 36.44,27.56 34.88,26.4 C32.76,24.83 29.66,24.51 27.71,26.25 Z" fill="url(#SVGID_8_)"/>
</svg>
